X: 18
T:L'ennuy qui me tourmente
T:The grief that tortures me
M:6/4
R:Galliard
B:Thoinot Arbeau : Orchesographie, 1589
Z:Steve Mansfield February 2001
K:GDor
DDD FFF | FGG AzF | AAA AAG | FFE FzF ||
FFA AAF | AAA GzE | GGG FFD | AGF EzE ||
FFG AAF/F/ | A/A/AA GzE |
GAG FFE/E/ | D/D/DC DzD ||
<end>
<start>
